X: 21263
T: MISS STEWART'S REEL
C: J. Pattison.
%R: reel
B: W. Hamilton "Universal Tune-Book" Vol. 2 Glasgow 1846 p.126 #3
S: http://s3-eu-west-1.amazonaws.com/itma.dl.printmaterial/book_pdfs/hamiltonvol2web.pdf
Z: 2016 John Chambers <jc:trillian.mit.edu>
M: C|
L: 1/8
K: Bb
% - - - - - - - - - - - - - - - - - - - - - - - - -
G |\
B2BG FGBF | GBFB GBFc | B2BG FGBF |\
[1 GBFD C/C/C C :|[2 dgfd c/c/c c :|\
g | fdde fdge |
fdde f2fg | fdde fdge | fddB c2c>g |\
fdde fdge | fdde f2fg/a/ | bfge fdec | BGFD C/C/C C |]
% - - - - - - - - - - - - - - - - - - - - - - - - -

%%sep 1 1 500
%%sep 1 1 500

